Newaita-dark/apps/64/gnome-mplayer.svg

<?xml version="1.0" encoding="UTF-8"?>
<svg xmlns="http://www.w3.org/2000/svg" xmlns:xlink="http://www.w3.org/1999/xlink" width="64pt" height="64pt" viewBox="0 0 64 64" version="1.1">
<defs>
<linearGradient id="linear0" gradientUnits="userSpaceOnUse" x1="254" y1="233.5" x2="254" y2="-168.666656" gradientTransform="matrix(0.125012,0,0,0.125012,0,26.877566)">
<stop offset="0" style="stop-color:rgb(61.176471%,80%,39.607843%);stop-opacity:1;"/>
<stop offset="1" style="stop-color:rgb(68.235294%,83.529412%,50.588235%);stop-opacity:1;"/>
</linearGradient>
<linearGradient id="linear1" gradientUnits="userSpaceOnUse" x1="254" y1="233.5" x2="254" y2="254.666672" gradientTransform="matrix(0.125012,0,0,0.125012,-0.00000763012,26.87757)">
<stop offset="0" style="stop-color:rgb(0%,0%,0%);stop-opacity:0.27451;"/>
<stop offset="1" style="stop-color:rgb(0%,0%,0%);stop-opacity:0;"/>
</linearGradient>
<radialGradient id="radial0" gradientUnits="userSpaceOnUse" cx="450.908936" cy="189.579361" fx="450.908936" fy="189.579361" r="21.166656" gradientTransform="matrix(0.000000348341,-0.156265,-0.281277,-0.000000203077,106.24586,127.190665)">
<stop offset="0" style="stop-color:rgb(0%,0%,0%);stop-opacity:0.313725;"/>
<stop offset="0.222222" style="stop-color:rgb(0%,0%,0%);stop-opacity:0.27451;"/>
<stop offset="1" style="stop-color:rgb(0%,0%,0%);stop-opacity:0;"/>
</radialGradient>
<radialGradient id="radial1" gradientUnits="userSpaceOnUse" cx="450.908936" cy="189.579361" fx="450.908936" fy="189.579361" r="21.166656" gradientTransform="matrix(-0.000000348341,0.156265,0.281277,0.000000203077,-42.409041,-15.054958)">
<stop offset="0" style="stop-color:rgb(0%,0%,0%);stop-opacity:0.313725;"/>
<stop offset="0.222222" style="stop-color:rgb(0%,0%,0%);stop-opacity:0.27451;"/>
<stop offset="1" style="stop-color:rgb(0%,0%,0%);stop-opacity:0;"/>
</radialGradient>
<radialGradient id="radial2" gradientUnits="userSpaceOnUse" cx="450.908936" cy="189.579361" fx="450.908936" fy="189.579361" r="21.166656" gradientTransform="matrix(-0.000000348341,-0.156265,0.281277,-0.000000203077,-42.409041,127.190665)">
<stop offset="0" style="stop-color:rgb(0%,0%,0%);stop-opacity:0.313725;"/>
<stop offset="0.222222" style="stop-color:rgb(0%,0%,0%);stop-opacity:0.27451;"/>
<stop offset="1" style="stop-color:rgb(0%,0%,0%);stop-opacity:0;"/>
</radialGradient>
<radialGradient id="radial3" gradientUnits="userSpaceOnUse" cx="450.908936" cy="189.579361" fx="450.908936" fy="189.579361" r="21.166656" gradientTransform="matrix(0.000000348341,0.156265,-0.281277,0.000000203077,106.245857,-15.054959)">
<stop offset="0" style="stop-color:rgb(0%,0%,0%);stop-opacity:0.313725;"/>
<stop offset="0.222222" style="stop-color:rgb(0%,0%,0%);stop-opacity:0.27451;"/>
<stop offset="1" style="stop-color:rgb(0%,0%,0%);stop-opacity:0;"/>
</radialGradient>
<linearGradient id="linear2" gradientUnits="userSpaceOnUse" x1="254" y1="233.5" x2="254" y2="-168.666656" gradientTransform="matrix(0.125012,0,0,0.125012,0,26.877566)">
<stop offset="0" style="stop-color:rgb(25.882353%,25.882353%,25.882353%);stop-opacity:1;"/>
<stop offset="1" style="stop-color:rgb(38.039216%,38.039216%,38.039216%);stop-opacity:1;"/>
</linearGradient>
<linearGradient id="linear3" gradientUnits="userSpaceOnUse" x1="370.416656" y1="159.416672" x2="370.416656" y2="180.583328" gradientTransform="matrix(1,0,0,1,0,10.583338)">
<stop offset="0" style="stop-color:rgb(87.843137%,87.843137%,87.843137%);stop-opacity:1;"/>
<stop offset="1" style="stop-color:rgb(98.039216%,98.039216%,98.039216%);stop-opacity:1;"/>
</linearGradient>
<linearGradient id="linear4" gradientUnits="userSpaceOnUse" x1="211.666672" y1="159.416672" x2="211.666672" y2="180.583328" gradientTransform="matrix(1,0,0,1,0,10.583338)">
<stop offset="0" style="stop-color:rgb(89.803922%,22.352941%,20.784314%);stop-opacity:1;"/>
<stop offset="1" style="stop-color:rgb(93.72549%,32.54902%,31.372549%);stop-opacity:1;"/>
</linearGradient>
<linearGradient id="linear5" gradientUnits="userSpaceOnUse" x1="285.75" y1="138.25" x2="285.75" y2="201.75" gradientTransform="matrix(1,0,0,1,26.458323,10.583338)">
<stop offset="0" style="stop-color:rgb(87.843137%,87.843137%,87.843137%);stop-opacity:1;"/>
<stop offset="1" style="stop-color:rgb(98.039216%,98.039216%,98.039216%);stop-opacity:1;"/>
</linearGradient>
<linearGradient id="linear6" gradientUnits="userSpaceOnUse" x1="254" y1="53.583332" x2="254" y2="-105.166656" gradientTransform="matrix(0.125012,0,0,0.125012,-0.667982,27.211976)">
<stop offset="0" style="stop-color:rgb(87.843137%,87.843137%,87.843137%);stop-opacity:1;"/>
<stop offset="1" style="stop-color:rgb(93.333333%,93.333333%,93.333333%);stop-opacity:1;"/>
</linearGradient>
</defs>
<g id="surface1">
<path style=" stroke:none;fill-rule:nonzero;fill:url(#linear0);" d="M 6.613281 5.792969 L 56.890625 5.792969 C 58.351562 5.792969 59.535156 6.976562 59.535156 8.4375 L 59.535156 53.421875 C 59.535156 54.882812 58.351562 56.066406 56.890625 56.066406 L 6.613281 56.066406 C 5.152344 56.066406 3.96875 54.882812 3.96875 53.421875 L 3.96875 8.4375 C 3.96875 6.976562 5.152344 5.792969 6.613281 5.792969 Z M 6.613281 5.792969 "/>
<path style=" stroke:none;fill-rule:nonzero;fill:url(#linear1);" d="M 10.253906 56.066406 L 53.582031 56.066406 L 53.582031 58.714844 L 10.253906 58.714844 Z M 10.253906 56.066406 "/>
<path style=" stroke:none;fill-rule:nonzero;fill:url(#radial0);" d="M 53.582031 56.066406 L 58.875 56.066406 L 58.875 53.421875 L 53.582031 53.421875 Z M 53.582031 56.066406 "/>
<path style=" stroke:none;fill-rule:nonzero;fill:url(#radial1);" d="M 10.253906 56.066406 L 4.960938 56.066406 L 4.960938 58.714844 L 10.253906 58.714844 Z M 10.253906 56.066406 "/>
<path style=" stroke:none;fill-rule:nonzero;fill:url(#radial2);" d="M 10.253906 56.066406 L 4.960938 56.066406 L 4.960938 53.421875 L 10.253906 53.421875 Z M 10.253906 56.066406 "/>
<path style=" stroke:none;fill-rule:nonzero;fill:url(#radial3);" d="M 53.582031 56.066406 L 58.875 56.066406 L 58.875 58.714844 L 53.582031 58.714844 Z M 53.582031 56.066406 "/>
<path style=" stroke:none;fill-rule:nonzero;fill:url(#linear2);" d="M 3.96875 42.507812 L 3.96875 53.421875 C 3.96875 54.886719 5.148438 56.066406 6.613281 56.066406 L 56.890625 56.066406 C 58.355469 56.066406 59.535156 54.886719 59.535156 53.421875 L 59.535156 42.507812 Z M 3.96875 42.507812 "/>
<path style="fill-rule:nonzero;fill:url(#linear3);stroke-width:3;stroke-linecap:round;stroke-linejoin:miter;stroke:rgb(12.941177%,12.941177%,12.941177%);stroke-opacity:1;stroke-miterlimit:4;" d="M 74.086675 169.994485 L 433.927312 169.994485 C 439.770504 169.994485 444.488803 174.744031 444.488803 180.587223 C 444.488803 186.430415 439.770504 191.179962 433.927312 191.179962 L 74.086675 191.179962 C 68.243483 191.179962 63.493937 186.430415 63.493937 180.587223 C 63.493937 174.744031 68.243483 169.994485 74.086675 169.994485 Z M 74.086675 169.994485 " transform="matrix(0.125012,0,0,0.125012,0,26.877566)"/>
<path style="fill-rule:nonzero;fill:url(#linear4);stroke-width:3;stroke-linecap:round;stroke-linejoin:miter;stroke:rgb(12.941177%,12.941177%,12.941177%);stroke-opacity:1;stroke-miterlimit:4;" d="M 74.086675 169.994485 L 338.65516 169.994485 C 344.498352 169.994485 349.247898 174.306573 349.247898 179.587319 L 349.247898 181.555881 C 349.247898 186.867874 344.498352 191.179962 338.65516 191.179962 L 74.086675 191.179962 C 68.243483 191.179962 63.493937 186.867874 63.493937 181.555881 L 63.493937 179.587319 C 63.493937 174.306573 68.243483 169.994485 74.086675 169.994485 Z M 74.086675 169.994485 " transform="matrix(0.125012,0,0,0.125012,0,26.877566)"/>
<path style="fill-rule:nonzero;fill:url(#linear5);stroke-width:3;stroke-linecap:round;stroke-linejoin:miter;stroke:rgb(12.941177%,12.941177%,12.941177%);stroke-opacity:1;stroke-miterlimit:4;" d="M 322.781676 148.840255 C 340.311252 148.840255 354.528644 163.057647 354.528644 180.587223 C 354.528644 198.116799 340.311252 212.334192 322.781676 212.334192 C 305.2521 212.334192 291.034708 198.116799 291.034708 180.587223 C 291.034708 163.057647 305.2521 148.840255 322.781676 148.840255 Z M 322.781676 148.840255 " transform="matrix(0.125012,0,0,0.125012,0,26.877566)"/>
<path style=" stroke:none;fill-rule:nonzero;fill:rgb(100%,100%,100%);fill-opacity:0.988235;" d="M 6.613281 5.792969 C 5.148438 5.792969 3.96875 6.972656 3.96875 8.4375 L 3.96875 9.101562 C 3.96875 7.632812 5.148438 6.453125 6.613281 6.453125 L 56.890625 6.453125 C 58.355469 6.453125 59.535156 7.632812 59.535156 9.101562 L 59.535156 8.4375 C 59.535156 6.972656 58.355469 5.792969 56.890625 5.792969 Z M 6.613281 5.792969 "/>
<path style=" stroke:none;fill-rule:nonzero;fill:rgb(0%,0%,0%);fill-opacity:0.235294;" d="M 6.613281 56.066406 C 5.148438 56.066406 3.96875 54.886719 3.96875 53.421875 L 3.96875 52.761719 C 3.96875 54.226562 5.148438 55.40625 6.613281 55.40625 L 56.890625 55.40625 C 58.355469 55.40625 59.535156 54.226562 59.535156 52.761719 L 59.535156 53.421875 C 59.535156 54.886719 58.355469 56.066406 56.890625 56.066406 Z M 6.613281 56.066406 "/>
<path style=" stroke:none;fill-rule:nonzero;fill:url(#linear6);" d="M 25.835938 14.070312 C 25.09375 14.046875 24.476562 14.644531 24.476562 15.386719 L 24.476562 32.585938 C 24.476562 33.605469 25.585938 34.238281 26.460938 33.722656 L 41.015625 25.121094 C 41.878906 24.613281 41.878906 23.363281 41.015625 22.855469 L 26.460938 14.253906 C 26.273438 14.140625 26.058594 14.078125 25.835938 14.070312 Z M 25.835938 14.070312 "/>
<path style=" stroke:none;fill-rule:nonzero;fill:rgb(100%,100%,100%);fill-opacity:0.235294;" d="M 25.769531 14.070312 C 25.054688 14.085938 24.476562 14.667969 24.476562 15.386719 L 24.476562 16.042969 C 24.476562 15.296875 25.09375 14.703125 25.835938 14.726562 C 26.058594 14.734375 26.273438 14.796875 26.460938 14.910156 L 41.015625 23.507812 C 41.339844 23.699219 41.542969 23.996094 41.621094 24.316406 C 41.757812 23.78125 41.554688 23.171875 41.015625 22.855469 L 26.460938 14.253906 C 26.273438 14.140625 26.058594 14.078125 25.835938 14.070312 C 25.8125 14.070312 25.789062 14.070312 25.769531 14.070312 Z M 25.769531 14.070312 "/>
<path style=" stroke:none;fill-rule:nonzero;fill:rgb(0%,0%,0%);fill-opacity:0.235294;" d="M 25.769531 33.910156 C 25.054688 33.898438 24.476562 33.316406 24.476562 32.59375 L 24.476562 31.941406 C 24.476562 32.683594 25.09375 33.28125 25.835938 33.253906 C 26.058594 33.25 26.273438 33.183594 26.460938 33.074219 L 41.015625 24.472656 C 41.339844 24.28125 41.542969 23.988281 41.621094 23.667969 C 41.757812 24.203125 41.554688 24.808594 41.015625 25.128906 L 26.460938 33.726562 C 26.273438 33.839844 26.058594 33.902344 25.835938 33.910156 C 25.8125 33.910156 25.789062 33.910156 25.769531 33.910156 Z M 25.769531 33.910156 "/>
<path style=" stroke:none;fill-rule:nonzero;fill:rgb(12.941177%,12.941177%,12.941177%);fill-opacity:1;" d="M 25.84375 13.882812 C 24.996094 13.855469 24.289062 14.539062 24.289062 15.386719 L 24.289062 32.585938 C 24.289062 33.742188 25.5625 34.46875 26.558594 33.882812 L 41.113281 25.28125 C 42.089844 24.703125 42.089844 23.269531 41.113281 22.691406 L 26.558594 14.09375 C 26.339844 13.964844 26.09375 13.894531 25.84375 13.882812 Z M 25.832031 14.257812 C 26.019531 14.265625 26.203125 14.320312 26.367188 14.414062 L 40.921875 23.015625 C 41.667969 23.457031 41.667969 24.519531 40.921875 24.960938 L 26.367188 33.558594 C 25.605469 34.007812 24.664062 33.472656 24.664062 32.585938 L 24.664062 15.386719 C 24.664062 14.746094 25.191406 14.238281 25.832031 14.257812 Z M 25.832031 14.257812 "/>
<path style=" stroke:none;fill-rule:nonzero;fill:rgb(0%,0%,0%);fill-opacity:0.627451;" d="M 3.96875 41.808594 L 59.535156 41.808594 L 59.535156 42.523438 L 3.96875 42.523438 Z M 3.96875 41.808594 "/>
<path style=" stroke:none;fill-rule:nonzero;fill:rgb(0%,0%,0%);fill-opacity:0.235294;" d="M 3.96875 41.183594 L 59.535156 41.183594 L 59.535156 41.863281 L 3.96875 41.863281 Z M 3.96875 41.183594 "/>
<path style=" stroke:none;fill-rule:nonzero;fill:rgb(97.254902%,97.254902%,97.254902%);fill-opacity:0.313725;" d="M 3.96875 42.507812 L 59.535156 42.507812 L 59.535156 43.183594 L 3.96875 43.183594 Z M 3.96875 42.507812 "/>
<path style=" stroke:none;fill-rule:nonzero;fill:rgb(12.941177%,12.941177%,12.941177%);fill-opacity:1;" d="M 6.613281 5.605469 C 5.046875 5.605469 3.78125 6.871094 3.78125 8.4375 L 3.78125 53.421875 C 3.78125 54.988281 5.046875 56.253906 6.613281 56.253906 L 56.890625 56.253906 C 58.457031 56.253906 59.722656 54.988281 59.722656 53.421875 L 59.722656 8.4375 C 59.722656 6.871094 58.457031 5.605469 56.890625 5.605469 Z M 6.613281 5.980469 L 56.890625 5.980469 C 58.257812 5.980469 59.347656 7.074219 59.347656 8.4375 L 59.347656 53.421875 C 59.347656 54.789062 58.257812 55.878906 56.890625 55.878906 L 6.613281 55.878906 C 5.25 55.878906 4.15625 54.789062 4.15625 53.421875 L 4.15625 8.4375 C 4.15625 7.074219 5.25 5.980469 6.613281 5.980469 Z M 6.613281 5.980469 "/>
</g>
</svg>

<svg xmlns="http://www.w3.org/2000/svg" width="64pt" height="64pt" viewBox="0 0 64 64"><defs><linearGradient id="a" gradientUnits="userSpaceOnUse" x1="254" y1="233.5" x2="254" y2="-168.667" gradientTransform="translate(0 26.878) scale(.12501)"><stop offset="0" stop-color="#9ccc65"/><stop offset="1" stop-color="#aed581"/></linearGradient><linearGradient id="b" gradientUnits="userSpaceOnUse" x1="254" y1="233.5" x2="254" y2="254.667" gradientTransform="translate(0 26.878) scale(.12501)"><stop offset="0" stop-opacity=".275"/><stop offset="1" stop-opacity="0"/></linearGradient><radialGradient id="c" gradientUnits="userSpaceOnUse" cx="450.909" cy="189.579" fx="450.909" fy="189.579" r="21.167" gradientTransform="matrix(0 -.15626 -.28128 0 106.246 127.19)"><stop offset="0" stop-opacity=".314"/><stop offset=".222" stop-opacity=".275"/><stop offset="1" stop-opacity="0"/></radialGradient><radialGradient id="d" gradientUnits="userSpaceOnUse" cx="450.909" cy="189.579" fx="450.909" fy="189.579" r="21.167" gradientTransform="matrix(0 .15626 .28128 0 -42.409 -15.055)"><stop offset="0" stop-opacity=".314"/><stop offset=".222" stop-opacity=".275"/><stop offset="1" stop-opacity="0"/></radialGradient><radialGradient id="e" gradientUnits="userSpaceOnUse" cx="450.909" cy="189.579" fx="450.909" fy="189.579" r="21.167" gradientTransform="matrix(0 -.15626 .28128 0 -42.409 127.19)"><stop offset="0" stop-opacity=".314"/><stop offset=".222" stop-opacity=".275"/><stop offset="1" stop-opacity="0"/></radialGradient><radialGradient id="f" gradientUnits="userSpaceOnUse" cx="450.909" cy="189.579" fx="450.909" fy="189.579" r="21.167" gradientTransform="matrix(0 .15626 -.28128 0 106.246 -15.055)"><stop offset="0" stop-opacity=".314"/><stop offset=".222" stop-opacity=".275"/><stop offset="1" stop-opacity="0"/></radialGradient><linearGradient id="g" gradientUnits="userSpaceOnUse" x1="254" y1="233.5" x2="254" y2="-168.667" gradientTransform="translate(0 26.878) scale(.12501)"><stop offset="0" stop-color="#424242"/><stop offset="1" stop-color="#616161"/></linearGradient><linearGradient id="h" gradientUnits="userSpaceOnUse" x1="370.417" y1="159.417" x2="370.417" y2="180.583" gradientTransform="translate(0 10.583)"><stop offset="0" stop-color="#e0e0e0"/><stop offset="1" stop-color="#fafafa"/></linearGradient><linearGradient id="i" gradientUnits="userSpaceOnUse" x1="211.667" y1="159.417" x2="211.667" y2="180.583" gradientTransform="translate(0 10.583)"><stop offset="0" stop-color="#e53935"/><stop offset="1" stop-color="#ef5350"/></linearGradient><linearGradient id="j" gradientUnits="userSpaceOnUse" x1="285.75" y1="138.25" x2="285.75" y2="201.75" gradientTransform="translate(26.458 10.583)"><stop offset="0" stop-color="#e0e0e0"/><stop offset="1" stop-color="#fafafa"/></linearGradient><linearGradient id="k" gradientUnits="userSpaceOnUse" x1="254" y1="53.583" x2="254" y2="-105.167" gradientTransform="translate(-.668 27.212) scale(.12501)"><stop offset="0" stop-color="#e0e0e0"/><stop offset="1" stop-color="#eee"/></linearGradient></defs><path d="M6.613 5.793h50.278a2.644 2.644 0 0 1 2.644 2.644v44.985a2.644 2.644 0 0 1-2.644 2.644H6.613a2.644 2.644 0 0 1-2.644-2.644V8.438a2.644 2.644 0 0 1 2.644-2.645zm0 0" fill="url(#a)"/><path d="M10.254 56.066h43.328v2.649H10.254zm0 0" fill="url(#b)"/><path d="M53.582 56.066h5.293v-2.644h-5.293zm0 0" fill="url(#c)"/><path d="M10.254 56.066H4.96v2.649h5.293zm0 0" fill="url(#d)"/><path d="M10.254 56.066H4.96v-2.644h5.293zm0 0" fill="url(#e)"/><path d="M53.582 56.066h5.293v2.649h-5.293zm0 0" fill="url(#f)"/><path d="M3.969 42.508v10.914a2.639 2.639 0 0 0 2.644 2.644h50.278a2.639 2.639 0 0 0 2.644-2.644V42.508zm0 0" fill="url(#g)"/><path d="M74.087 169.994h359.84c5.844 0 10.562 4.75 10.562 10.593s-4.718 10.593-10.562 10.593H74.087c-5.844 0-10.593-4.75-10.593-10.593s4.75-10.593 10.593-10.593zm0 0" transform="translate(0 26.878) scale(.12501)" fill="url(#h)" stroke-width="3" stroke-linecap="round" stroke="#212121"/><path d="M74.087 169.994h264.568c5.843 0 10.593 4.313 10.593 9.593v1.969c0 5.312-4.75 9.624-10.593 9.624H74.087c-5.844 0-10.593-4.312-10.593-9.624v-1.969c0-5.28 4.75-9.593 10.593-9.593zm0 0" transform="translate(0 26.878) scale(.12501)" fill="url(#i)" stroke-width="3" stroke-linecap="round" stroke="#212121"/><path d="M322.782 148.84c17.53 0 31.747 14.218 31.747 31.747 0 17.53-14.218 31.747-31.747 31.747-17.53 0-31.747-14.217-31.747-31.747s14.217-31.747 31.747-31.747zm0 0" transform="translate(0 26.878) scale(.12501)" fill="url(#j)" stroke-width="3" stroke-linecap="round" stroke="#212121"/><path d="M6.613 5.793A2.639 2.639 0 0 0 3.97 8.437v.665a2.64 2.64 0 0 1 2.644-2.649h50.278a2.64 2.64 0 0 1 2.644 2.649v-.665a2.639 2.639 0 0 0-2.644-2.644zm0 0" fill="#fff" fill-opacity=".988"/><path d="M6.613 56.066a2.639 2.639 0 0 1-2.644-2.644v-.66a2.639 2.639 0 0 0 2.644 2.644h50.278a2.639 2.639 0 0 0 2.644-2.644v.66a2.639 2.639 0 0 1-2.644 2.644zm0 0" fill-opacity=".235"/><path d="M25.836 14.07a1.32 1.32 0 0 0-1.36 1.317v17.199c0 1.02 1.11 1.652 1.985 1.137l14.555-8.602a1.315 1.315 0 0 0 0-2.266L26.46 14.254a1.294 1.294 0 0 0-.625-.184zm0 0" fill="url(#k)"/><path d="M25.77 14.07a1.32 1.32 0 0 0-1.293 1.317v.656a1.317 1.317 0 0 1 1.984-1.133l14.555 8.598c.324.191.527.488.605.808a1.31 1.31 0 0 0-.605-1.46L26.46 14.253a1.294 1.294 0 0 0-.625-.184h-.066zm0 0" fill="#fff" fill-opacity=".235"/><path d="M25.77 33.91a1.315 1.315 0 0 1-1.293-1.316v-.653c0 .743.617 1.34 1.359 1.313a1.29 1.29 0 0 0 .625-.18l14.555-8.601c.324-.192.527-.485.605-.805a1.312 1.312 0 0 1-.605 1.46L26.46 33.728a1.294 1.294 0 0 1-.625.183h-.066zm0 0" fill-opacity=".235"/><path d="M25.844 13.883a1.509 1.509 0 0 0-1.555 1.504v17.199c0 1.156 1.273 1.883 2.27 1.297l14.554-8.602c.977-.578.977-2.011 0-2.59L26.56 14.094a1.55 1.55 0 0 0-.715-.211zm-.012.375c.188.008.371.062.535.156l14.555 8.602a1.125 1.125 0 0 1 0 1.945l-14.555 8.598a1.122 1.122 0 0 1-1.703-.973v-17.2c0-.64.527-1.148 1.168-1.128zm0 0" fill="#212121"/><path d="M3.969 41.809h55.566v.714H3.97zm0 0" fill-opacity=".627"/><path d="M3.969 41.184h55.566v.68H3.97zm0 0" fill-opacity=".235"/><path d="M3.969 42.508h55.566v.676H3.97zm0 0" fill="#f8f8f8" fill-opacity=".314"/><path d="M6.613 5.605a2.83 2.83 0 0 0-2.832 2.832v44.985a2.83 2.83 0 0 0 2.832 2.832h50.278a2.83 2.83 0 0 0 2.832-2.832V8.438a2.83 2.83 0 0 0-2.832-2.833zm0 .375h50.278a2.447 2.447 0 0 1 2.457 2.457v44.985a2.444 2.444 0 0 1-2.457 2.457H6.613a2.447 2.447 0 0 1-2.457-2.457V8.438A2.449 2.449 0 0 1 6.613 5.98zm0 0" fill="#212121"/></svg>
